X: 262
T: 8. La Fitz-James
T: la Fitz-James
B: Robert Landrin "Potpourri fran\,cois des contre-danse ancienne tel quil se danse chez la Reine ..." 1760 p.26 #2 dance 8 #8
S: http://memory.loc.gov/cgi-bin/query/D?musdibib:2:./temp/~ammem_EbRS:
Z: 2014 John Chambers <jc:trillian.mit.edu>
M: 6/8
L: 1/8
K: G
% - - - - - - - - - - - - - - - - - - - - - - - - -
d2c |\
BGB cAc | BAG d2c | BGB AFA | G3 :|\
|: g2"2.F."d |\
BAG ABc | BAG g2d | BAG ABA | G2 :|
|: "1.F."G2A |\
BAB cBc | d3 cdc | BcB AGA | B2G G2A |\
BAB cBc | d2c d2c | BcB ABA | G3 :|
[| g2"1.F."d |\
g2d cBA | B2G g2d | g2d cBA | G3 g2d |\
g2d cBA | B2G g2d | g2d cBA | HG3 |]
% - - - - - - - - - - - - - - - - - - - - - - - - -

%%sep 1 1 500
%%sep 1 1 500
